packages/ui-icons/svg/Line/complete.svg

<svg viewBox="0 0 1920 1920" version="1.1" xmlns="http://www.w3.org/2000/svg">
    <path d="M960,1807.05882 C492.875294,1807.05882 112.941176,1427.12471 112.941176,960 C112.941176,492.875294 492.875294,112.941176 960,112.941176 C1427.12471,112.941176 1807.05882,492.875294 1807.05882,960 C1807.05882,1427.12471 1427.12471,1807.05882 960,1807.05882 M960,0 C430.644706,0 0,430.644706 0,960 C0,1489.35529 430.644706,1920 960,1920 C1489.35529,1920 1920,1489.35529 1920,960 C1920,430.644706 1489.35529,0 960,0 M854.343529,1157.97459 L583.058824,886.689882 L503.209412,966.539294 L854.343529,1317.67341 L1454.4,717.616941 L1374.55059,637.767529 L854.343529,1157.97459 Z" stroke="none" stroke-width="1" fill-rule="evenodd"/>
</svg>

<svg viewBox="0 0 1920 1920" version="1.1" xmlns="http://www.w3.org/2000/svg">
    <path d="M960 1807.059c-467.125 0-847.059-379.934-847.059-847.059 0-467.125 379.934-847.059 847.059-847.059 467.125 0 847.059 379.934 847.059 847.059 0 467.125-379.934 847.059-847.059 847.059M960 0C430.645 0 0 430.645 0 960s430.645 960 960 960 960-430.645 960-960S1489.355 0 960 0M854.344 1157.975L583.059 886.69l-79.85 79.85 351.135 351.133L1454.4 717.617l-79.85-79.85-520.206 520.208z" stroke="none" stroke-width="1" fill-rule="evenodd"/>
</svg>
